X:1
T:Title
%%score { ( 1 4 ) | ( 2 3 ) }
L:1/8
Q:1/4=100
M:6/8
K:Eb
V:1 treble nm="Grand Piano"
V:4 treble 
V:2 bass 
V:3 bass 
V:1
 G2 G G2 G | A2 c B2 G | [GB]2 [GB] [_Gc]2 [Gc] | [GB]2 [EG] .[DF]3 | c2 B A2 G | %5
w: Will~H.~Ruebush * * *|||||
 [DF]2 [EG] [FA]2 [DF] | [DB]2 [FB] B2 =A | d2 c .[DB]3 | [DA]2 [DA] G2 G | A2 c B2 G | %10
w: |||||
 [GB]2 [GB] [_Gc]2 [Gc] | [GB]2 [EG] .[DF]3 | [Ad]2 [Ad] c2 d | e2 [Ad] [Ge]2 [Ec] | %14
w: ||||
 [EB]2 [EB] [EB]2 [EG] | [DF]2 [DG] .E3 | BGB [Ge]2 [Gd] | cdc [GB]2 [EG] | [Ge]2 [Ac] [GB]2 G | %19
w: |||||
 F2 G .A3 | BGB [Ge]2 [Gd] | cdc [GB]2 [EG] | .e3 z3 | [A,DF]2 [B,DG] .[G,E]3 |] %24
w: |||||
V:2
 [E,B,E]2 [E,B,E] [E,B,E]2 [E,E] | [E,CE]2 [E,A,E] [E,G,E]2 [E,B,E] | %2
 [E,B,]2 [E,B,] [E,=A,]2 [E,A,] | [E,B,]2 [E,B,] .[B,,B,]3 | [A,E]2 [G,B,E] [F,B,D]2 [E,B,E] | %5
 [B,,B,]2 [B,,B,] [B,,B,]2 [B,,B,] | [B,,B,]2 [D,B,] [F,DF]2 [F,CF] | [F,B,F]2 [F,=A,E] .[B,,B,]3 | %8
 [B,,B,]2 [B,,B,] [E,B,E]2 [E,=B,E] | [E,CE]2 [E,A,E] [E,G,E]2 [E,B,E] | %10
 [E,B,]2 [E,B,] [E,=A,]2 [E,A,] | [E,B,]2 [E,B,] .[B,,B,]3 | %12
 [B,,B,]2 [B,,B,][K:treble] [A,B,E]2 [A,B,F] | [G,B,E]2 [F,B,] [E,B,]2 [A,,A,] | %14
 [B,,G,]2 [B,,G,] [B,,G,]2 [B,,B,] | [B,,A,]2 [B,,B,] .[E,G,]3 | %16
 [E,E]-[E,B,E][E,G,E] [E,B,]2 [E,E] | .E3[K:bass] z3 | [E,B,]2 [E,E] [E,E]2 [E,B,E] | %19
 [A,B,D]2 [G,B,E] .[F,B,D]3 | [E,E]-[E,B,E][E,G,E] [E,B,]2 [E,E] | .E3[K:bass] z3 | %22
 E,-[E,E]E, z B,E, | B,,2 B,, .E,3 |] %24
V:3
 x6 | x6 | x6 | x6 | x6 | x6 | x6 | x6 | x6 | x6 | x6 | x6 | x3[K:treble] x3 | x6 | x6 | x6 | %16
 .G,3 z3 | [A,A]-[A,CA][A,EA][K:bass] [E,E]2 [E,B,] | x6 | x6 | .G,3 z3 | %21
 [A,A]-[A,CA][A,EA][K:bass] [E,E]2 [E,B,] | .B,3 .E,3 | x6 |] %24
V:4
 x6 | x6 | x6 | x6 | x6 | x6 | x6 | x6 | x6 | x6 | x6 | x6 | x6 | x6 | x6 | x6 | x6 | x6 | x6 | %19
 x6 | x6 | x6 | G-[GB][EGB] [EGB][DG][G,E] | x6 |] %24

